styles/5/Numix/64/places/yellow-folder-steam.svg

<?xml version="1.0" encoding="UTF-8" standalone="no"?>
<!-- Created with Inkscape (http://www.inkscape.org/) -->

<svg
   xmlns:dc="http://purl.org/dc/elements/1.1/"
   xmlns:cc="http://creativecommons.org/ns#"
   xmlns:rdf="http://www.w3.org/1999/02/22-rdf-syntax-ns#"
   xmlns:svg="http://www.w3.org/2000/svg"
   xmlns="http://www.w3.org/2000/svg"
   xmlns:xlink="http://www.w3.org/1999/xlink"
   xmlns:sodipodi="http://sodipodi.sourceforge.net/DTD/sodipodi-0.dtd"
   xmlns:inkscape="http://www.inkscape.org/namespaces/inkscape"
   width="64"
   height="64"
   id="svg2"
   version="1.1"
   inkscape:version="0.91 r"
   sodipodi:docname="yellow-folder-steam.svg"
   inkscape:export-filename="/media/Data/Main/Visuals/Icons/Numix/Desktop/repos/numix-wiki/Gjorgi/Numix-folders/48/New/folder-144.png"
   inkscape:export-xdpi="270"
   inkscape:export-ydpi="270">
  <defs
     id="defs4">
    <linearGradient
       id="linearGradient3886-9">
      <stop
         style="stop-color:#000000;stop-opacity:1;"
         offset="0"
         id="stop3888-3" />
      <stop
         style="stop-color:#000000;stop-opacity:0.19607843;"
         offset="1"
         id="stop3890-7" />
    </linearGradient>
    <radialGradient
       r="24"
       fy="40.5"
       fx="24"
       cy="40.5"
       cx="24"
       gradientTransform="matrix(1.6666667,0,0,0.2777777,-8,1030.4456)"
       gradientUnits="userSpaceOnUse"
       id="radialGradient3101"
       xlink:href="#linearGradient3886-9"
       inkscape:collect="always" />
  </defs>
  <sodipodi:namedview
     id="base"
     pagecolor="#ffffff"
     bordercolor="#666666"
     borderopacity="1.0"
     inkscape:pageopacity="0.0"
     inkscape:pageshadow="2"
     inkscape:zoom="7.4607355"
     inkscape:cx="18.754918"
     inkscape:cy="40.199256"
     inkscape:document-units="px"
     inkscape:current-layer="layer1"
     showgrid="true"
     inkscape:window-width="1280"
     inkscape:window-height="998"
     inkscape:window-x="0"
     inkscape:window-y="0"
     inkscape:window-maximized="1"
     showguides="true"
     inkscape:guide-bbox="true">
    <inkscape:grid
       type="xygrid"
       id="grid2985"
       empspacing="5"
       visible="true"
       enabled="true"
       snapvisiblegridlinesonly="true" />
  </sodipodi:namedview>
  <metadata
     id="metadata7">
    <rdf:RDF>
      <cc:Work
         rdf:about="">
        <dc:format>image/svg+xml</dc:format>
        <dc:type
           rdf:resource="http://purl.org/dc/dcmitype/StillImage" />
        <dc:title />
      </cc:Work>
    </rdf:RDF>
  </metadata>
  <g
     inkscape:label="Layer 1"
     inkscape:groupmode="layer"
     id="layer1"
     transform="translate(0,-988.3622)">
    <path
       inkscape:connector-curvature="0"
       style="opacity:0.1;fill:url(#radialGradient3101);fill-opacity:1;stroke:none"
       d="m 32,1035.0288 c -13.102065,0 -24.70396,1.0442 -32,2.6668 l 0,8 c 7.29604,1.6224 18.897935,2.6666 32,2.6666 13.102066,0 24.70396,-1.0442 32,-2.6666 l 0,-8 c -7.29604,-1.6226 -18.897934,-2.6668 -32,-2.6668 z"
       id="path3868" />
    <rect
       style="fill:#ffb300;fill-opacity:1;stroke:none"
       id="rect2987"
       width="60"
       height="41.999908"
       x="2"
       y="1002.3622"
       rx="6.521739"
       ry="6.5624819" />
    <path
       style="opacity:0.2;fill:#ffffff;fill-opacity:1;stroke:none"
       d="M 8.521739,1001.6956 C 4.908696,1001.6956 2,1004.6688 2,1008.3622 l 0,2.6666 c 0,-3.6932 2.908696,-6.6666 6.521739,-6.6666 l 46.956521,0 c 3.613044,0 6.52174,2.9734 6.52174,6.6666 l 0,-2.6666 c 0,-3.6934 -2.908696,-6.6666 -6.52174,-6.6666 l -46.956521,0 z"
       id="rect3797"
       inkscape:connector-curvature="0" />
    <path
       style="fill:#ffca28;fill-opacity:1;stroke:none"
       d="m 8.521739,1012.3622 10.434783,0 c 14.347826,-1.3334 11.73913,-16 20.869564,-16 l 15.652174,0 c 3.613044,0 6.52174,2.9734 6.52174,6.6666 l 0,34.6668 c 0,3.6932 -2.908696,6.6666 -6.52174,6.6666 l -46.956521,0 C 4.908696,1044.3622 2,1041.3888 2,1037.6956 l 0,-18.6668 c 0,-4 2.608696,-6.6666 6.521739,-6.6666 z"
       id="rect3776"
       inkscape:connector-curvature="0"
       sodipodi:nodetypes="cccsssssscc" />
    <path
       style="opacity:0.15;fill:#000000;fill-opacity:1;stroke:none"
       d="m 2,1035.0288 0,2.6668 c 0,3.6932 2.908696,6.6666 6.521739,6.6666 l 46.956521,0 c 3.613044,0 6.52174,-2.9734 6.52174,-6.6666 l 0,-2.6668 c 0,3.6934 -2.908696,7.3334 -6.52174,7.3334 l -46.956521,0 C 4.908696,1042.3622 2,1038.7222 2,1035.0288 z"
       id="path3786"
       inkscape:connector-curvature="0"
       sodipodi:nodetypes="csssscssc" />
    <path
       id="path4515"
       d="m 23.15625,1020.2997 c -2.422871,0 -4.40625,2.0161 -4.40625,4.5 0,0.8335 0.235419,1.6387 0.625,2.3125 l 0,4.875 c -0.479854,0.1025 -0.938018,0.3252 -1.3125,0.625 l -4.34375,-2 c 0,-1.7715 -1.426405,-3.2187 -3.15625,-3.2187 -1.7267529,0 -3.15625,1.4463 -3.15625,3.2187 0,1.7748 1.4287235,3.25 3.15625,3.25 0.700587,0 1.350085,-0.2855 1.875,-0.6875 l 4.40625,2.0625 c 0.0454,1.735 1.457015,3.125 3.15625,3.125 1.729848,0 3.15625,-1.444 3.15625,-3.2187 0,-0.7394 -0.275042,-1.4228 -0.6875,-1.9688 l 0.0625,0 2.3125,-4.1875 c 0.01656,-0.018 0.01478,-0.057 0.03125,-0.062 1.552784,-0.7014 2.6875,-2.2813 2.6875,-4.125 0,-2.4814 -1.986476,-4.5 -4.40625,-4.5 z m 0,1.5 c 1.627636,0 2.90625,1.3312 2.90625,3 0,1.6719 -1.279389,3 -2.90625,3 -1.629959,0 -2.90625,-1.3281 -2.90625,-3 0,-1.6688 1.276291,-3 2.90625,-3 z m 0,1.0938 c -1.040698,0 -1.90625,0.8341 -1.90625,1.9062 0,1.0678 0.865552,1.9063 1.90625,1.9063 1.043794,0 1.875,-0.8374 1.875,-1.9063 0,-1.0714 -0.831206,-1.9062 -1.875,-1.9062 z m -12.59375,5.7812 c 1.033216,0 1.626076,0.4467 1.8125,1.3125 l -1.09375,-0.5 c -0.71393,-0.3113 -1.5409905,0.017 -1.84375,0.75 -0.3027625,0.7323 0.00481,1.5667 0.71875,1.875 L 11,1032.5185 c -0.137861,0.023 -0.279927,0.031 -0.4375,0.031 -1.2582851,0 -1.875,-0.6444 -1.875,-1.9375 0,-1.2901 0.6167149,-1.9375 1.875,-1.9375 z M 20,1032.9872 c 1.164587,0 2.09375,0.9624 2.09375,2.1563 0,1.1938 -0.929163,2.125 -2.09375,2.125 -0.945709,0 -1.738665,-0.6215 -2,-1.5 l 1.5,0.6875 c 0.713929,0.3112 1.540988,-0.077 1.84375,-0.8125 0.30276,-0.7321 -0.03607,-1.567 -0.75,-1.875 l -1.375,-0.625 c 0.241093,-0.1 0.504197,-0.1563 0.78125,-0.1563 z"
       style="fill:#000000;fill-opacity:0.09803922;fill-rule:nonzero;stroke:none"
       inkscape:connector-curvature="0" />
    <path
       style="opacity:1;fill:#fff8e1;fill-opacity:1;fill-rule:nonzero;stroke:none"
       d="M 23.15625 29.9375 C 20.733379 29.9375 18.75 31.9536 18.75 34.4375 C 18.75 35.271 18.985419 36.0762 19.375 36.75 L 19.375 41.625 C 18.895146 41.7275 18.436982 41.9502 18.0625 42.25 L 13.71875 40.25 C 13.71875 38.4785 12.292345 37.03125 10.5625 37.03125 C 8.8357471 37.03125 7.40625 38.4776 7.40625 40.25 C 7.40625 42.0248 8.8349735 43.5 10.5625 43.5 C 11.263087 43.5 11.912585 43.2145 12.4375 42.8125 L 16.84375 44.875 C 16.88915 46.61 18.300765 48 20 48 C 21.729848 48 23.15625 46.55595 23.15625 44.78125 C 23.15625 44.04185 22.881208 43.3585 22.46875 42.8125 L 22.53125 42.8125 L 24.84375 38.625 C 24.86031 38.607 24.85853 38.5685 24.875 38.5625 C 26.427784 37.8611 27.5625 36.2812 27.5625 34.4375 C 27.5625 31.9561 25.576024 29.9375 23.15625 29.9375 z M 23.15625 31.4375 C 24.783886 31.4375 26.0625 32.7687 26.0625 34.4375 C 26.0625 36.1094 24.783111 37.4375 23.15625 37.4375 C 21.526291 37.4375 20.25 36.1094 20.25 34.4375 C 20.25 32.7687 21.526291 31.4375 23.15625 31.4375 z M 23.15625 32.53125 C 22.115552 32.53125 21.25 33.3654 21.25 34.4375 C 21.25 35.5053 22.115552 36.34375 23.15625 36.34375 C 24.200044 36.34375 25.03125 35.5064 25.03125 34.4375 C 25.03125 33.3661 24.200044 32.53125 23.15625 32.53125 z M 10.5625 38.3125 C 11.595716 38.3125 12.188576 38.7592 12.375 39.625 L 11.28125 39.125 C 10.56732 38.8137 9.7402595 39.1419 9.4375 39.875 C 9.1347375 40.6073 9.4423074 41.4417 10.15625 41.75 L 11 42.15625 C 10.862139 42.17925 10.720073 42.1875 10.5625 42.1875 C 9.3042149 42.1875 8.6875 41.5431 8.6875 40.25 C 8.6875 38.9599 9.3042149 38.3125 10.5625 38.3125 z M 20 42.625 C 21.164587 42.625 22.09375 43.58735 22.09375 44.78125 C 22.09375 45.97505 21.164587 46.90625 20 46.90625 C 19.054291 46.90625 18.261335 46.28475 18 45.40625 L 19.5 46.09375 C 20.213929 46.40495 21.040988 46.01625 21.34375 45.28125 C 21.64651 44.54915 21.307684 43.71425 20.59375 43.40625 L 19.21875 42.78125 C 19.459843 42.68125 19.722947 42.625 20 42.625 z "
       transform="translate(0,988.3622)"
       id="path3447" />
  </g>
</svg>

<!-- Created with Inkscape (http://www.inkscape.org/) -->
<svg xmlns="http://www.w3.org/2000/svg" viewBox="0 0 64 64">
 <defs>
  <radialGradient r="24" cy="40.5" cx="24" gradientTransform="matrix(1.6666667,0,0,0.2777777,-8,1030.4456)" gradientUnits="userSpaceOnUse" id="radialGradient3101">
   <stop style="stop-color:#000;stop-opacity:1"/>
   <stop offset="1" style="stop-color:#000;stop-opacity:0.196"/>
  </radialGradient>
 </defs>
 <g transform="translate(0,-988.3622)">
  <path d="m 32 1035.03 c -13.1 0 -24.704 1.044 -32 2.667 l 0 8 c 7.296 1.622 18.898 2.667 32 2.667 13.1 0 24.704 -1.044 32 -2.667 l 0 -8 c -7.296 -1.623 -18.898 -2.667 -32 -2.667 z" style="fill:url(#radialGradient3101);opacity:0.1;fill-opacity:1;stroke:none"/>
  <rect width="60" height="42" x="2" y="1002.36" rx="6.522" ry="6.562" style="fill:#ffb300;fill-opacity:1;stroke:none"/>
  <path d="m 8.522 1001.7 c -3.613 0 -6.522 2.973 -6.522 6.667 l 0 2.667 c 0 -3.693 2.909 -6.667 6.522 -6.667 l 46.957 0 c 3.613 0 6.522 2.973 6.522 6.667 l 0 -2.667 c 0 -3.693 -2.909 -6.667 -6.522 -6.667 l -46.957 0 z" style="fill:#fff;opacity:0.2;fill-opacity:1;stroke:none"/>
  <path d="m 8.522 1012.36 10.435 0 c 14.348 -1.333 11.739 -16 20.87 -16 l 15.652 0 c 3.613 0 6.522 2.973 6.522 6.667 l 0 34.667 c 0 3.693 -2.909 6.667 -6.522 6.667 l -46.957 0 c -3.613 0 -6.522 -2.973 -6.522 -6.667 l 0 -18.667 c 0 -4 2.609 -6.667 6.522 -6.667 z" style="fill:#ffca28;fill-opacity:1;stroke:none"/>
  <path d="m 2 1035.03 0 2.667 c 0 3.693 2.909 6.667 6.522 6.667 l 46.957 0 c 3.613 0 6.522 -2.973 6.522 -6.667 l 0 -2.667 c 0 3.693 -2.909 7.333 -6.522 7.333 l -46.957 0 c -3.613 0 -6.522 -3.64 -6.522 -7.333 z" style="fill:#000;opacity:0.15;fill-opacity:1;stroke:none"/>
  <path d="m 23.16 1020.3 c -2.423 0 -4.406 2.02 -4.406 4.5 0 0.833 0.235 1.639 0.625 2.313 l 0 4.875 c -0.48 0.102 -0.938 0.325 -1.313 0.625 l -4.344 -2 c 0 -1.772 -1.426 -3.219 -3.156 -3.219 -1.727 0 -3.156 1.446 -3.156 3.219 0 1.775 1.429 3.25 3.156 3.25 0.701 0 1.35 -0.285 1.875 -0.688 l 4.406 2.063 c 0.045 1.735 1.457 3.125 3.156 3.125 1.73 0 3.156 -1.444 3.156 -3.219 0 -0.739 -0.275 -1.423 -0.688 -1.969 l 0.063 0 2.313 -4.188 c 0.017 -0.018 0.015 -0.057 0.031 -0.062 1.553 -0.701 2.688 -2.281 2.688 -4.125 0 -2.481 -1.986 -4.5 -4.406 -4.5 z m 0 1.5 c 1.628 0 2.906 1.331 2.906 3 0 1.672 -1.279 3 -2.906 3 -1.63 0 -2.906 -1.328 -2.906 -3 0 -1.669 1.276 -3 2.906 -3 z m 0 1.094 c -1.041 0 -1.906 0.834 -1.906 1.906 0 1.068 0.866 1.906 1.906 1.906 1.044 0 1.875 -0.837 1.875 -1.906 0 -1.071 -0.831 -1.906 -1.875 -1.906 z m -12.594 5.781 c 1.033 0 1.626 0.447 1.813 1.313 l -1.094 -0.5 c -0.714 -0.311 -1.541 0.017 -1.844 0.75 -0.303 0.732 0.005 1.567 0.719 1.875 l 0.844 0.406 c -0.138 0.023 -0.28 0.031 -0.438 0.031 -1.258 0 -1.875 -0.644 -1.875 -1.938 0 -1.29 0.617 -1.938 1.875 -1.938 z m 9.438 4.313 c 1.165 0 2.094 0.962 2.094 2.156 0 1.194 -0.929 2.125 -2.094 2.125 -0.946 0 -1.739 -0.621 -2 -1.5 l 1.5 0.688 c 0.714 0.311 1.541 -0.077 1.844 -0.813 0.303 -0.732 -0.036 -1.567 -0.75 -1.875 l -1.375 -0.625 c 0.241 -0.1 0.504 -0.156 0.781 -0.156 z" style="fill:#000;fill-opacity:0.098;stroke:none;fill-rule:nonzero"/>
  <path d="m 23.16 29.938 c -2.423 0 -4.406 2.02 -4.406 4.5 c 0 0.834 0.235 1.639 0.625 2.313 l 0 4.875 c -0.48 0.102 -0.938 0.325 -1.313 0.625 l -4.344 -2 c 0 -1.772 -1.426 -3.219 -3.156 -3.219 c -1.727 0 -3.156 1.446 -3.156 3.219 c 0 1.775 1.429 3.25 3.156 3.25 c 0.701 0 1.35 -0.285 1.875 -0.688 l 4.406 2.063 c 0.045 1.735 1.457 3.125 3.156 3.125 c 1.73 0 3.156 -1.444 3.156 -3.219 c 0 -0.739 -0.275 -1.423 -0.688 -1.969 l 0.063 0 l 2.313 -4.188 c 0.017 -0.018 0.015 -0.056 0.031 -0.063 c 1.553 -0.701 2.688 -2.281 2.688 -4.125 c 0 -2.481 -1.986 -4.5 -4.406 -4.5 z m 0 1.5 c 1.628 0 2.906 1.331 2.906 3 c 0 1.672 -1.279 3 -2.906 3 c -1.63 0 -2.906 -1.328 -2.906 -3 c 0 -1.669 1.276 -3 2.906 -3 z m 0 1.094 c -1.041 0 -1.906 0.834 -1.906 1.906 c 0 1.068 0.866 1.906 1.906 1.906 c 1.044 0 1.875 -0.837 1.875 -1.906 c 0 -1.071 -0.831 -1.906 -1.875 -1.906 z m -12.594 5.781 c 1.033 0 1.626 0.447 1.813 1.313 l -1.094 -0.5 c -0.714 -0.311 -1.541 0.017 -1.844 0.75 c -0.303 0.732 0.005 1.567 0.719 1.875 l 0.844 0.406 c -0.138 0.023 -0.28 0.031 -0.438 0.031 c -1.258 0 -1.875 -0.644 -1.875 -1.938 c 0 -1.29 0.617 -1.938 1.875 -1.938 z m 9.438 4.313 c 1.165 0 2.094 0.962 2.094 2.156 c 0 1.194 -0.929 2.125 -2.094 2.125 c -0.946 0 -1.739 -0.621 -2 -1.5 l 1.5 0.688 c 0.714 0.311 1.541 -0.078 1.844 -0.813 c 0.303 -0.732 -0.036 -1.567 -0.75 -1.875 l -1.375 -0.625 c 0.241 -0.1 0.504 -0.156 0.781 -0.156 z" transform="translate(0,988.3622)" style="fill:#fff8e1;opacity:1;fill-opacity:1;stroke:none;fill-rule:nonzero"/>
 </g>
</svg>
